X: 12
T: The Ruby Wedding
C: Neil Barron
P: Tune for "The Post Chaise"
B: Roy Goldring "14 Social Dances for 2000"
R: jig
Z: 2015 John Chambers <jc:trillian.mit.edu>
M: 6/8
L: 1/8
K: F
A/B/ |\
"F"cdc c2A | "C7"GFG "F"A2B | "F"cdc "Bb"fed | "F"cAF "C7"GAB |
"F"cdc c2A | "C"GFG "D7"ABc | "Gm"Bgf "C7"efg | "F"f3 f2 :|
|: E/F/ |\
"C7"G2E CcB | "F"A2G Fdc | "Gm"B2A "G7/b"Ggf | "C7"e2d "C7/e"cfg |
"F"a2a "C"geg | "Dm"f/g/af "Am"edc | "Gm"Bgf "C7"efg | "F"f3 f2 :|

%%sep 1 1 500
%%sep 1 1 500

